src/images/social/slack.svg

<?xml version="1.0" encoding="UTF-8"?>
<svg width="30px" height="30px" viewBox="0 0 30 30" version="1.1" xmlns="http://www.w3.org/2000/svg" xmlns:xlink="http://www.w3.org/1999/xlink">
    <!-- Generator: Sketch 51.2 (57519) - http://www.bohemiancoding.com/sketch -->
    <title>slack</title>
    <desc>Created with Sketch.</desc>
    <defs></defs>
    <g id="Page-1" stroke="none" stroke-width="1" fill="none" fill-rule="evenodd">
        <g id="Front-Page" transform="translate(-860.000000, -6786.000000)" fill="#000000" fill-rule="nonzero">
            <g id="Footer-Section" transform="translate(195.000000, 6148.000000)">
                <g id="Social" transform="translate(544.000000, 638.000000)">
                    <g id="slack" transform="translate(121.000000, 0.000000)">
                        <path d="M29.8106585,16.05614 C29.3559217,14.6545026 27.8513603,13.8891225 26.4497229,14.3438593 L23.7624714,15.2177775 C23.1673837,13.3838593 22.5329977,11.4339178 21.93791,9.60374237 C23.5715942,9.07228039 24.6251615,8.72982424 24.6251615,8.72982424 C26.0267989,8.2750874 26.792179,6.770526 26.3374422,5.36888857 C25.8827053,3.96725115 24.3781439,3.20187103 22.9765065,3.65660787 L20.289255,4.530526 C19.757793,2.89684179 19.4153369,1.84327454 19.4153369,1.84327454 C18.9624714,0.443508455 17.45791,-0.323743007 16.0562726,0.130993835 C14.6546351,0.585730678 13.889255,2.09029208 14.3439919,3.49192951 L15.21791,6.17918097 L9.60387491,8.00374237 C9.07428427,6.37005816 8.73182813,5.31649091 8.73182813,5.31649091 C8.27521994,3.91485348 6.77065854,3.14760202 5.37089246,3.60421021 C3.96925503,4.05894705 3.20200357,5.56350846 3.65861176,6.96327454 L4.53252989,9.65239734 L1.75919655,10.5543856 C0.449255031,11.0278359 -0.286183565,12.4407014 0.104927546,13.7992979 C0.512880762,15.2140348 2.01557082,16.0767248 3.40598018,15.6257307 C3.41720825,15.621988 4.5082024,15.2683038 6.17931351,14.7237424 L8.00387491,20.3377775 L5.23054158,21.2397658 C3.92247141,21.7132161 3.18703281,23.1260816 3.57627258,24.484678 C3.98422579,25.8994149 5.48691585,26.7639763 6.87732521,26.3111108 C6.88855328,26.3073681 7.97954743,25.9536839 9.65252989,25.4091225 L10.5545182,28.1824558 C11.0279685,29.490526 12.440834,30.2259646 13.7994305,29.8367248 C15.2141673,29.4287716 16.0787287,27.9260816 15.6258632,26.5356722 C15.6221205,26.5244441 15.2684363,25.4353213 14.7257463,23.7623389 C16.5596644,23.1672511 18.5096059,22.5328652 20.3397813,21.9377775 L21.2417697,24.7111108 C21.7152199,26.019181 23.1280854,26.7546196 24.4866819,26.3653798 C25.9014188,25.9574266 26.7659802,24.4547365 26.3131147,23.0643272 C26.309372,23.0530991 25.9556878,21.9639763 25.4111264,20.2909938 C27.0448106,19.7595318 28.0983778,19.4170757 28.0983778,19.4170757 C29.4981439,18.9623389 30.2653954,17.4577775 29.8106585,16.05614 Z M13.0770913,18.6909938 C12.4801322,16.8570757 11.8476176,14.9071342 11.2525299,13.0769587 C13.086448,12.481871 15.0363895,11.8474851 16.866565,11.2523973 L18.6911264,16.8664324 L13.0770913,18.6909938 Z" id="Shape"></path>
                    </g>
                </g>
            </g>
        </g>
    </g>
</svg>

<svg width="30" height="30" xmlns="http://www.w3.org/2000/svg">
  <path d="M29.81 16.056a2.667 2.667 0 0 0-3.36-1.712l-2.688.874-1.824-5.614 2.687-.874a2.667 2.667 0 1 0-1.648-5.073l-2.688.874-.874-2.688a2.665 2.665 0 1 0-5.071 1.649l.874 2.687-5.614 1.825-.872-2.688a2.667 2.667 0 0 0-5.073 1.647l.874 2.69-2.774.901A2.666 2.666 0 0 0 .105 13.8c.408 1.415 1.91 2.278 3.301 1.827l2.773-.902 1.825 5.614-2.773.902a2.669 2.669 0 0 0-1.655 3.245c.408 1.414 1.91 2.279 3.301 1.826.012-.004 1.103-.357 2.776-.902l.902 2.773a2.669 2.669 0 0 0 3.244 1.655c1.415-.408 2.28-1.91 1.827-3.301-.004-.012-.358-1.1-.9-2.774l5.614-1.824.902 2.773a2.669 2.669 0 0 0 3.245 1.654c1.414-.408 2.279-1.91 1.826-3.3l-.902-2.774 2.687-.874a2.668 2.668 0 0 0 1.713-3.36zm-16.733 2.635c-.597-1.834-1.23-3.784-1.824-5.614l5.614-1.825 1.824 5.614-5.614 1.825z" fill="#000" fill-rule="nonzero"/>
</svg>
